images/visa.svg

<svg width="76" height="25" viewBox="0 0 76 25" fill="none" xmlns="http://www.w3.org/2000/svg">
<path fill-rule="evenodd" clip-rule="evenodd" d="M19.0008 24.7742H12.4235L7.49128 5.40422C7.25718 4.5132 6.76011 3.72549 6.02894 3.35423C4.20423 2.42124 2.19351 1.67872 0 1.30423V0.558489H10.5955C12.0579 0.558489 13.1546 1.67872 13.3374 2.97974L15.8965 16.952L22.4706 0.558489H28.8652L19.0008 24.7742ZM32.521 24.7742H26.3093L31.4243 0.558489H37.636L32.521 24.7742ZM45.6725 7.26698C45.8553 5.96273 46.952 5.21699 48.2316 5.21699C50.2423 5.02975 52.4326 5.40423 54.2605 6.33399L55.3573 1.12023C53.5294 0.374487 51.5186 0 49.6939 0C43.665 0 39.278 3.35424 39.278 8.0095C39.278 11.551 42.3854 13.4105 44.5789 14.5307C46.952 15.6477 47.866 16.3935 47.6832 17.5105C47.6832 19.186 45.8553 19.9317 44.0306 19.9317C41.837 19.9317 39.6435 19.3732 37.636 18.4403L36.5393 23.6572C38.7328 24.587 41.1059 24.9615 43.2994 24.9615C50.0595 25.1455 54.2605 21.7945 54.2605 16.7647C54.2605 10.4307 45.6725 10.0595 45.6725 7.26698ZM76 24.7742L71.0678 0.558489H65.77C64.6733 0.558489 63.5765 1.30423 63.2109 2.42124L54.0777 24.7742H60.4722L61.7486 21.236H69.6055L70.3366 24.7742H76ZM66.684 7.07975L68.5087 16.2063H63.3937L66.684 7.07975Z" fill="black"/>
</svg>

<svg width="76" height="25" fill="none" xmlns="http://www.w3.org/2000/svg"><path fill-rule="evenodd" clip-rule="evenodd" d="M19 24.774h-6.576L7.49 5.404c-.234-.89-.73-1.679-1.462-2.05C4.204 2.421 2.194 1.68 0 1.304V.558h10.595c1.463 0 2.56 1.12 2.742 2.422l2.56 13.972L22.47.558h6.394L19 24.774zm13.521 0h-6.212L31.424.558h6.212l-5.115 24.216zM45.672 7.267c.183-1.304 1.28-2.05 2.56-2.05 2.01-.187 4.2.187 6.029 1.117l1.096-5.214A15.33 15.33 0 0049.694 0c-6.029 0-10.416 3.354-10.416 8.01 0 3.541 3.107 5.4 5.3 6.52 2.374 1.118 3.288 1.864 3.105 2.98 0 1.676-1.828 2.422-3.652 2.422-2.194 0-4.387-.559-6.395-1.492l-1.097 5.217c2.194.93 4.567 1.305 6.76 1.305 6.76.183 10.962-3.168 10.962-8.197 0-6.334-8.589-6.706-8.589-9.498zM76 24.774L71.068.558H65.77c-1.097 0-2.193.746-2.56 1.863l-9.132 22.353h6.394l1.277-3.538h7.857l.73 3.538H76zM66.684 7.08l1.825 9.126h-5.115l3.29-9.126z" fill="#000"/></svg>
